X:1
T: Penny's Jig
C:Bruce Shawyer
R:Jig
I:speed 180
K:G
M:6/8
L:1/16
B2|G4G2 G2A2B2|d4d2 d4B2|c4c2 c2B2A2|A4B2 B4D2|G4G2 G2A2B2|d4d2 d4B2|c2d2c2 B2A2B2|A2G2G2 G4B2|
G4G2 G2A2B2|d4d2 d4B2|c4c2 c2B2A2|A4B2 B4D2|G4G2 G2A2B2|d4d2 d4B2|c2d2c2 B2A2B2|A2G2G2 G4B2|
d4d2 d2c2B2|d4d2 d4B2|c2d2e2 e2d2c2|e4d2 d4d2|g4g2 g2f2e2|d4c2 B4B2|c2d2c2 B2A2B2|A2G2G2 G4B2|
d4d2 d2c2B2|d4d2 d4B2|c2d2e2 e2d2c2|e4d2 d4d2|g4g2 g2f2e2|d4c2 B4B2|c2d2c2 B2A2B2|A2G2G2 G4||
